X: 3207
T: The AULD HOUSE
Q: "Highland Schottische."
R: Schottische.
%R: shottish
B: James Kerr "Merry Melodies" v.3 p.24 #207
Z: 2016 John Chambers <jc:trillian.mit.edu>
M: C
L: 1/8
K: G
G |\
B<B A>G A>G E<G | D<D G>B A2 G>A |\
B<B A>G A>G E<G | D<B B>A G3 ::\
G |\
A<A B>d e>ed>B | d<B A>G A2 G>A |\
B<B A>G E>D D<G | D<B B>A G2- G :|

%%sep 1 1 500
%%sep 1 1 500

